Speka/assets/images/viber_color.svg

<svg width="21" height="21" viewBox="0 0 21 21" fill="none" xmlns="http://www.w3.org/2000/svg">
<ellipse cx="11.1818" cy="11.1827" rx="9.81823" ry="9.81723" fill="white"/>
<path fill-rule="evenodd" clip-rule="evenodd" d="M11.2662 7.1402C11.6594 7.2249 11.9608 7.37596 12.2183 7.61968C12.5497 7.93599 12.7313 8.31881 12.8111 8.86879C12.8651 9.22736 12.843 9.36837 12.7173 9.48529C12.5995 9.59407 12.3819 9.59806 12.2502 9.49533C12.1544 9.42276 12.1244 9.3462 12.1025 9.13868C12.0766 8.86257 12.0287 8.66924 11.9468 8.48996C11.7711 8.10921 11.4617 7.91174 10.9388 7.8473C10.6933 7.817 10.6194 7.78892 10.5396 7.69417C10.3938 7.51888 10.4498 7.23479 10.6513 7.13C10.7272 7.09171 10.7591 7.08773 10.9268 7.09777C11.0308 7.10384 11.1845 7.12202 11.2662 7.1402ZM10.8411 5.61898C12.0528 5.79826 12.9909 6.36643 13.6058 7.28918C13.9512 7.80902 14.1667 8.41946 14.2406 9.07423C14.2664 9.31397 14.2664 9.75119 14.2385 9.82376C14.2125 9.89219 14.1287 9.98487 14.0569 10.0231C13.9791 10.0635 13.8134 10.0594 13.7216 10.011C13.5679 9.93239 13.522 9.80749 13.522 9.46902C13.522 8.94727 13.3882 8.39712 13.1567 7.96996C12.8932 7.48235 12.5099 7.07943 12.0429 6.79934C11.6416 6.55752 11.0488 6.37824 10.5079 6.33389C10.3122 6.31778 10.2044 6.27743 10.1306 6.19081C10.0168 6.05986 10.0048 5.88249 10.1006 5.73542C10.2043 5.57272 10.364 5.5464 10.8411 5.61898ZM6.14024 4.37593C6.21015 4.40018 6.31792 4.45649 6.37977 4.49684C6.75894 4.75078 7.81487 6.11473 8.16027 6.79567C8.35783 7.18455 8.42378 7.47262 8.36193 7.6862C8.29802 7.91589 8.1923 8.0368 7.71909 8.42153C7.52943 8.57657 7.35176 8.73576 7.32383 8.77819C7.25203 8.88299 7.19412 9.08843 7.19412 9.23358C7.19618 9.56998 7.41172 10.1806 7.69511 10.65C7.91459 11.0146 8.30781 11.482 8.69707 11.8407C9.15419 12.2639 9.55735 12.552 10.0126 12.7796C10.5975 13.0737 10.9547 13.1482 11.2162 13.0254C11.282 12.9951 11.3519 12.9549 11.3738 12.9367C11.3937 12.9185 11.5476 12.7292 11.7151 12.5196C12.0384 12.1085 12.1123 12.042 12.334 11.9655C12.6155 11.8688 12.9028 11.895 13.1924 12.0441C13.412 12.159 13.8911 12.4591 14.2003 12.6767C14.6076 12.9648 15.4778 13.6821 15.5957 13.8252C15.8032 14.0831 15.8391 14.4134 15.6995 14.7782C15.5518 15.163 14.977 15.8843 14.5757 16.1926C14.2125 16.4706 13.955 16.5773 13.6156 16.5934C13.3361 16.6075 13.2203 16.5834 12.863 16.4342C10.0607 15.2678 7.82308 13.5271 6.04652 11.1354C5.1184 9.88629 4.41165 8.59077 3.92866 7.24691C3.64716 6.46325 3.63328 6.1227 3.86475 5.7217C3.96463 5.55246 4.38972 5.13344 4.69915 4.89976C5.21417 4.51295 5.45165 4.36987 5.64131 4.32952C5.77102 4.30129 5.99666 4.32346 6.14024 4.37593ZM10.7034 4.15837C11.3901 4.24498 11.9449 4.41214 12.5538 4.7125C13.1526 5.0087 13.5359 5.2888 14.0428 5.79842C14.518 6.27998 14.7815 6.64461 15.0609 7.21071C15.4502 8.00043 15.6717 8.93945 15.7096 9.9729C15.7236 10.3254 15.7135 10.4041 15.6337 10.5049C15.482 10.7003 15.1486 10.668 15.0349 10.4484C14.9989 10.3758 14.989 10.3134 14.977 10.0313C14.9569 9.59806 14.9271 9.31812 14.8671 8.98363C14.6316 7.672 14.0088 6.62436 13.0147 5.87276C12.1863 5.24414 11.33 4.93788 10.2082 4.87137C9.8289 4.84919 9.76311 4.83516 9.67727 4.76864C9.51758 4.64167 9.50954 4.34355 9.66322 4.20446C9.75711 4.11785 9.82291 4.10573 10.1483 4.11578C10.3182 4.122 10.5677 4.14226 10.7034 4.15837ZM10.0986 0C15.6758 0 20.1971 4.57053 20.1971 10.2085C20.1971 15.8465 15.6758 20.417 10.0986 20.417C4.52132 20.417 0 15.8465 0 10.2085C0 4.57053 4.52132 0 10.0986 0Z" fill="#9103D3"/>
</svg>

<svg width="21" height="21" fill="none" xmlns="http://www.w3.org/2000/svg"><ellipse cx="11.182" cy="11.183" rx="9.818" ry="9.817" fill="#fff"/><path fill-rule="evenodd" clip-rule="evenodd" d="M11.266 7.14c.393.085.695.236.952.48.332.316.513.699.593 1.249.054.358.032.5-.094.616-.117.11-.335.113-.467.01-.096-.072-.126-.149-.148-.356a1.924 1.924 0 00-.155-.649c-.176-.38-.485-.578-1.008-.643-.246-.03-.32-.058-.4-.153a.378.378 0 01.112-.564c.076-.038.108-.042.276-.032.104.006.258.024.34.042zm-.425-1.521c1.212.18 2.15.747 2.765 1.67.345.52.56 1.13.635 1.785.025.24.025.677-.002.75a.457.457 0 01-.182.2.441.441 0 01-.335-.013c-.154-.079-.2-.204-.2-.542 0-.522-.134-1.072-.365-1.499a3.05 3.05 0 00-1.114-1.17c-.401-.242-.994-.422-1.535-.466-.196-.016-.304-.057-.377-.143a.37.37 0 01-.03-.456c.103-.162.263-.189.74-.116zm-4.7-1.243c.07.024.177.08.239.12.379.255 1.435 1.619 1.78 2.3.198.389.264.677.202.89-.064.23-.17.35-.643.736-.19.155-.367.314-.395.356a.947.947 0 00-.13.456c.002.336.218.947.501 1.416.22.365.613.832 1.002 1.19.457.424.86.712 1.316.94.585.294.942.368 1.203.245a.961.961 0 00.158-.088c.02-.018.174-.208.341-.417.323-.412.397-.478.619-.554a1.06 1.06 0 01.858.078c.22.115.7.415 1.008.633.408.288 1.278 1.005 1.396 1.148.207.258.243.588.104.953-.148.385-.723 1.106-1.124 1.415-.364.278-.621.384-.96.4-.28.015-.396-.01-.753-.159-2.802-1.166-5.04-2.907-6.816-5.299-.929-1.249-1.635-2.544-2.118-3.888-.282-.784-.296-1.124-.064-1.525.1-.17.525-.589.834-.822.515-.387.753-.53.942-.57a1.06 1.06 0 01.5.046zm4.562-.218a5.52 5.52 0 011.85.554c.6.297.983.577 1.49 1.086.475.482.739.847 1.018 1.413.39.79.61 1.728.649 2.762.014.352.003.431-.076.532-.152.195-.485.163-.6-.057-.035-.072-.045-.135-.057-.417a7.376 7.376 0 00-.11-1.047c-.235-1.312-.858-2.36-1.852-3.111-.829-.629-1.685-.935-2.807-1.002-.38-.022-.445-.036-.53-.102-.16-.127-.168-.425-.015-.565.094-.086.16-.098.485-.088.17.006.42.026.555.042zM10.1 0c5.577 0 10.098 4.57 10.098 10.209 0 5.638-4.521 10.208-10.098 10.208-5.58 0-10.1-4.57-10.1-10.209C0 4.572 4.521 0 10.099 0z" fill="#9103D3"/></svg>
